src/shared/assets/images/Rewind/RewindIcon.svg

<svg width="59" height="58" viewBox="0 0 59 58" fill="none" xmlns="http://www.w3.org/2000/svg">
<rect x="5.5" y="3.5" width="47" height="47" rx="23.5" stroke="#CD7105"/>
<g filter="url(#filter0_d_1_14232)">
<rect x="6" y="4" width="46" height="46" rx="23" fill="white" fill-opacity="0.01" shape-rendering="crispEdges"/>
<g clip-path="url(#clip0_1_14232)">
<path d="M29.1368 18.4888V17.003C29.1368 15.6046 28.2628 15.0802 27.0392 15.8668L26.34 16.2164L22.1459 19.0995L21.6215 19.4491C20.3979 20.3231 20.3979 21.4593 21.6215 22.0711L22.0585 22.5081C23.1936 23.3821 25.1175 24.6057 26.2526 25.3049L26.8644 25.6545C27.9132 26.5285 28.8746 25.9167 28.8746 24.6057V22.6829C29.6567 22.6765 30.4322 22.8258 31.1561 23.1221C31.8799 23.4184 32.5375 23.8559 33.0906 24.4089C33.6436 24.962 34.0811 25.6196 34.3774 26.3434C34.6737 27.0673 34.823 27.8428 34.8166 28.6249C34.8166 31.9461 32.1946 34.4807 28.8746 34.4807C25.3786 34.4807 22.7566 31.8587 22.7566 28.5375C22.7566 27.4887 21.8826 26.6159 20.7475 26.6159C19.5239 26.6159 18.6499 27.4899 18.6499 28.5375C18.6499 34.0437 23.1936 38.5 28.7872 38.5C34.2922 38.5 38.8359 34.13 38.8359 28.5375C38.9233 23.1199 34.3796 18.751 28.8746 18.751L29.1368 18.4888Z" fill="#C8720B"/>
</g>
</g>
<defs>
<filter id="filter0_d_1_14232" x="0" y="0" width="59" height="58" filterUnits="userSpaceOnUse" color-interpolation-filters="sRGB">
<feFlood flood-opacity="0" result="BackgroundImageFix"/>
<feColorMatrix in="SourceAlpha" type="matrix" values="0 0 0 0 0 0 0 0 0 0 0 0 0 0 0 0 0 0 127 0" result="hardAlpha"/>
<feOffset dy="2"/>
<feGaussianBlur stdDeviation="3"/>
<feComposite in2="hardAlpha" operator="out"/>
<feColorMatrix type="matrix" values="0 0 0 0 0.396078 0 0 0 0 0.431373 0 0 0 0 0.482353 0 0 0 0.12 0"/>
<feBlend mode="normal" in2="BackgroundImageFix" result="effect1_dropShadow_1_14232"/>
<feBlend mode="normal" in="SourceGraphic" in2="effect1_dropShadow_1_14232" result="shape"/>
</filter>
<clipPath id="clip0_1_14232">
<rect width="27.6" height="27.6" fill="white" transform="translate(15.2 13.2)"/>
</clipPath>
</defs>
</svg>

<svg xmlns="http://www.w3.org/2000/svg" width="59" height="58" fill="none"><rect width="47" height="47" x="5.5" y="3.5" stroke="#CD7105" rx="23.5"/><g filter="url(#a)"><rect width="46" height="46" x="6" y="4" fill="#fff" fill-opacity=".01" rx="23" shape-rendering="crispEdges"/><g clip-path="url(#b)"><path fill="#C8720B" d="M29.137 18.489v-1.486c0-1.398-.874-1.923-2.098-1.136l-.699.35-4.194 2.883-.524.35c-1.224.873-1.224 2.01 0 2.621l.436.437c1.136.874 3.06 2.098 4.195 2.797l.611.35c1.05.874 2.01.262 2.01-1.05v-1.922a5.895 5.895 0 0 1 5.943 5.942c0 3.321-2.622 5.856-5.942 5.856-3.496 0-6.118-2.622-6.118-5.943 0-1.05-.874-1.922-2.01-1.922-1.223 0-2.097.874-2.097 1.922 0 5.506 4.544 9.962 10.137 9.962 5.505 0 10.049-4.37 10.049-9.962.087-5.418-4.456-9.787-9.961-9.787z"/></g></g><defs><clipPath id="b"><path fill="#fff" d="M15.2 13.2h27.6v27.6H15.2z"/></clipPath><filter id="a" width="59" height="58" x="0" y="0" color-interpolation-filters="sRGB" filterUnits="userSpaceOnUse"><feFlood flood-opacity="0" result="BackgroundImageFix"/><feColorMatrix in="SourceAlpha" result="hardAlpha" values="0 0 0 0 0 0 0 0 0 0 0 0 0 0 0 0 0 0 127 0"/><feOffset dy="2"/><feGaussianBlur stdDeviation="3"/><feComposite in2="hardAlpha" operator="out"/><feColorMatrix values="0 0 0 0 0.396078 0 0 0 0 0.431373 0 0 0 0 0.482353 0 0 0 0.12 0"/><feBlend in2="BackgroundImageFix" result="effect1_dropShadow_1_14232"/><feBlend in="SourceGraphic" in2="effect1_dropShadow_1_14232" result="shape"/></filter></defs></svg>
